X: 23432
T: Leslie's March
R: jig
M: 6/8
K: Dmajor
|:~d3 ~d3|dcB ABc|dcB AGF|FGF E2D|
~e3 ede|fed eag|~f2 e d2 A|def e2d:|
|:fed eAA|fed eAA|gfe fBB|gfe fBB|
fed eAA|fed eag|f2 e d2 A|def e2d:|
|:dfa dfa|dfa afd|egb egb|egb bge|
dfa dfa|dfa a2 g|~f3 d2 A|def e2d:|

